X:405
T: Joe Madden's Big Day (with piano acc.)
C: BB
R: reel
Q: 1/8=350
M: 4/4
L: 1/8
V: 1 program 1 21 %acc
V: 2 volume=70 clef=bass m=D program 1 00
K: D
[V:1] A|"D"d2 cd "Bm7"BAFE |"D"DEFA "Bm7"BAFA|"D"D2 (3FED "Bm7"FAAB|"D"defd "G"BGBc|
[V:2] z|D,2[A2D2F2]B,,2[F2A2D2]|D,2[A2D2F2]B,,2[F2A2D2]|D,2[A2D2F2]B,,2[F2A2D2]|\
D,2[A2D2F2]G,,2[G2B2D2]|
%
[V:1] "D"d2 cd "Bm7"BAFE|"D"DEFD "Em"EB,B,A,|"D"DEFA "G"BedB|"A"AFEC "D"D3 :|
[V:2] D,2[A2D2F2]B,,2[F2A2D2]|D,2[A2D2F2]E,2[E2B2G2]|D,2[A2D2F2]G,,2[G2B2D2]|\
A,,2[A2C2E2][D,3F3A,3]:|
%
[V:1] e|"Bm"fbaf "Em7"edde|"D"fded "G"BABc|"D"df (3fgf af (3fgf|"Bm"bafd "A"ecde|
[V:2] z|B,,2[F2A2D2]E,2[D2B2G2]|D,2[A2D2F2]G,,2[G2B2D2]|D,2[A2D2F2]A,,2[A2D2F2]|\
B,,2[F2B2D2]A,,2[A2C2E2]|
%
[V:1] "Bm"fbaf "Em7"edde|"D"fded "G"BGBc|"Bm"dBcA BAFA|"A"GECE "D"D3 :|
[V:2] B,,2[F2A2D2]E,2[D2B2G2]|D,2[A2D2F2]G,,2[G2B2D2]|B,,2[F2A2D2]F,,2[F2D2A2]|\
A,,2[A2C2E2][D,3F3A,3]:|
%%%%%%%%%%%%%%%%%%%%%%%%%%%%%%%%%%%%%%%%%%%
